X: 87
T: Cesto Horo 
O: Bulgaria
M: 2/4
L: 1/16
Q:1/4=180
K:G % 1 sharps
%%MIDI drum dzdz 40 40
%%MIDI drumon
%%MIDI program 68
 f2 ^g2 a4            | d8-                  | d8          | d4 f4              |\
 f4 d4                | f4 f4                | d8          | d4 f4              |
 f4 d4                | f4 f4                | d8          | d4 f4              |\
 f4 d4                | f4 f4                | d8          | d4 f4              |
 f4 d4                | f4 f4                | d8          | E4  (3^G2=F2E2     |\
 (3D2E2=F2 E4         | (3^G2=F2E2  (3D2E2=F2|\
 E4 E4                | E4  (3^G2=F2E2       |\
 (3D2E2=F2 E4         | (3^G2=F2E2  (3D2E2=F2|\ 
 E4 E4                |\ 
 E4  (3^G2=F2E2       | (3D2E2=F2 E4         | \
 (3^G2=F2E2  (3D2E2=F2| E4 E4                | 
 E4  (3^G2=F2E2       | (3D2E2=F2 E4         | \
 (3^G2=F2E2  (3D2E2=F2| E4 E4                | \
 ^f4  (3d2e2f2        |
 e4 f4                | f4  (3d2e2f2         | e8          | f4  (3d2e2f2       |
 e4 f4                | f4  (3d2e2f2         | e8          | f4  (3d2e2f2       |
 e4 f4                | f4  (3d2e2f2         | e8          | f4  (3d2e2f2       |
 e4 f4                | f4  (3d2e2f2         | e8          | (3d2^c2d2 e4       |
 =g4 f4               | (3d2^c2d2 e4         | (3e2d2^c2 B4| (3d2^c2d2  (3e2d2e2|
 (3g2f2g2 f4          | (3d2^c2d2 e4         | (3e2d2^c2 B4| (3d2^c2d2 e4       |
 g4 f4                | (3d2^c2d2 e4         | (3e2d2^c2 B4| (3d2^c2d2  (3e2d2e2|
 (3g2f2g2 f4          | (3d2^c2d2 e4         | (3e2d2^c2 B4| E4  (3^G2=F2E2     |
 (3D2E2=F2 E4         | (3^G2=F2E2  (3D2E2=F2| E4 E4       | E4  (3^G2=F2E2     |
 (3D2E2=F2 E4         | (3^G2=F2E2  (3D2E2=F2| E4 E4       | E4  (3^G2=F2E2     |
 (3D2E2=F2 E4         | (3^G2=F2E2  (3D2E2=F2| E4 E4       | E4  (3^G2=F2E2     |
 (3D2E2=F2 E4         | (3^G2=F2E2  (3D2E2=F2| E4 E4       |



